X: 10090
T: Didi's Tune
R: reel
M: 4/4
K: Edorian
B|e3B efg2|a3g fdgf|BeeB efga|fedf e3A|
BeeB efg2|a3g fdgf|BeeB efga|fedf e3||
f|g3f ~B3g|f3d ~A3f|e3B efga|fedf e3f|
g2gf gB~B2|f2fe fA~A2|e3B efga|fedf e2||
ga|b3a ~g3b|~a3a affa|g3f gfeg|fedf e2ga|
b2ba ~g3g|~a3a affa|g3f gfeg|fedf e2||
gf|eB~B2 eBfB|g2gf gaag|fB~B2 gfed|cdef e3f|
eB~B2 eBfB|g2gf gaag|fB~B2 gfed|Bdgf e3||

